X: 325
T: Bezmimiz Mutrıb ile...
C: Ahmet Avni Konuk
O: Turkey
F: http://compmusic.upf.edu/node/140
N: acemkurdi--kupe--musemmen--bezmimizde--ahmet_avni_konuk
N: makam= acemkurdi
N: form= kupe
N: usul= musemmen = 8/8
M: 8/8
L: 1/16
K: C _B   
Q: 1/4=96
%%MIDI tuningsystem comma53
f4 c2ef gff4z2  | d4 e2fe d^cd4z2  | \
w:  Bez mi miz  *  *  *  mut  |  rıb  i le  *  *  *  hay  | 
d4 e2c4d2 e2f2  | 
w:  ret fe zâ yı   | 
aba2 gagf fef4z2  | f2e2 f2g2 a2a2 g2f2  | \
w:  bezm_ *  *  i  *  cem    |  Din *  le  ey  *  şûh_  | 
e4 d2de {f}edc4z2  | 
w:  i  A cem *  *  *  *  kür  | 
c4 c2c2 _e2d2 c2B2  | B2A2 G2AB {c}BAA4z2  | |


